X: 32596
T: Planxty Nancy Vernon
R: jig
M: 6/8
K: Gmajor
d|B2 G E3|D3 DEG|A3 AGE|GAB c2 d|
B2 G E3|D3 DEG|A2 c B2 A|AGG G2||
B|d2 B G2 B|c3 c2 B|c2 d e2 d|dcB A2 B|
e2 d dcB|A3 B2 A|AGE E2D|DEG A2 d|
B2 G E3|D3 DEG|A2 c B2 A|AGG G2||

